X: 1
T: The Wheels Of The World
R: reel
M: 4/4
L: 1/8
K: Dmix
FA|:dD (3FED FAGF|EC (3CCC EFGA|dD (3FED FAGF|EDCE D2 FA|
dD (3FED FAGF|EDCD EFGc|AddB cBAG|1 ECGE D2 FA:|2 ECGE D2 AB||
|:dAdf afdf|ecgc acge|dAdf afdf|edce d2 AB|(3ddd df afdf|
ecgc acge|abag efge|1 fage d2 AB:|2 fage d2 FA||


Tune 1010	Setting 24079

